!!!!SEGMENT: pl-wn--sd-xvi-o-234_anonim--kancjonal-zamoyskich-lament-jeronima-szafranca-ach-panie-bys-nie-byl-bog.krn
!!!cenid: 15xx:792
!!!COM: Anonim
!!!COM-rismID: pe30004985
!!!CDT:
!!!CNT:
!!!OTL: Kancjonał Zamoyskich
!!!PDT: 1558
!!!AGN:
!!!YEC: Copyright 2022 Narodowy Instytut Fryderyka Chopina (https://polishscores.org)
!!!YEM: License CC-BY-4.0 (https://creativecommons.org/licenses/by/4.0)
!!!SMS-siglum: PL-Wn
!!!SMS-shelfmark: SD XVI.O.234
!!!SMS-shelfwork: W
!!!SMS-variant:
!!!SMS-altvar:
!!!NIFC-rismSourceID: 990071554
!!!NIFC-rismChildID: 990071554
!!!NIFC-islandoraID: none
!!!URL-pdf-islandora:
!!!URL-scan: https://polona2.pl/item/lament-jeronima-szafranca-starosty-checinskiego-o-smierci-syna-iego,MTE3MDI4OA/3 @EN{Scan on Polona} @PL{Skany w portalu Polona}
!!!IIIF: https://polona2.pl/iiif/item/MTE3MDI4OA/manifest.json
!!!ONB-nifc: UWAGA: proszę zapisywać tylko teksty występujące bezpośrednio pod nutami
!!!AIN: 1 alto 1 bass 1 soprn 1 tenor
!!!key: e:phr
**kern	**text	**mod-text	**kern	**text	**mod-text	**kern	**text	**mod-text	**kern	**text	**mod-text
*part4	*	*	*part3	*	*	*part2	*	*	*part1	*	*
*staff4	*	*	*staff3	*	*	*staff2	*	*	*staff1	*	*
*I"BASS.	*	*	*I"TENOR.	*	*	*I"ALTVS.	*	*	*I"CANTVS.	*	*
*mI"Basso	*	*	*mI"Tenore	*	*	*mI"Alto	*	*	*mI"Soprano	*	*
*I'B	*	*	*I'T	*	*	*I'A	*	*	*I'S	*	*
*Ibass	*	*	*Itenor	*	*	*Ialto	*	*	*Isoprn	*	*
*ICvox	*	*	*ICvox	*	*	*ICvox	*	*	*ICvox	*	*
*clefF4	*	*	*clefC4	*	*	*clefC3	*	*	*clefC1	*	*
*	*	*	*mclefGv2	*	*	*mclefG2	*	*	*mclefG2	*	*
*k[]	*	*	*k[]	*	*	*k[]	*	*	*k[]	*	*
*e:phr	*	*	*e:phr	*	*	*e:phr	*	*	*e:phr	*	*
!LO:MO:mod=!LO&colon;TS&colon;brack	!	!	!LO:MO:mod=!LO&colon;TS&colon;brack	!	!	!LO:MO:mod=!LO&colon;TS&colon;brack	!	!	!LO:MO:mod=!LO&colon;TS&colon;brack	!	!
!null	!	!	!null	!	!	!null	!	!	!null	!	!
*M2/1	*	*	*M2/1	*	*	*M2/1	*	*	*M2/1	*	*
*met()	*	*	*met()	*	*	*met()	*	*	*met()	*	*
*mmet(c|)	*	*	*mmet(c|)	*	*	*mmet(c|)	*	*	*mmet(c|)	*	*
=1-	=1-	=1-	=1-	=1-	=1-	=1-	=1-	=1-	=1-	=1-	=1-
*xywh-#5:2833,319,2139,989	*	*	*xywh-#5:555,418,2150,1000	*	*	*xywh-#6:627,1713,2084,584	*	*	*xywh-#6:574,336,2142,718	*	*
0E	Ach	Ach	0E	Ach	Ach	0B	.	Ach	0e	.	Ach
=2-	=2-	=2-	=2-	=2-	=2-	=2-	=2-	=2-	=2-	=2-	=2-
1AA	Pá-	Pa-	1A	Pá-	Pa-	1c	.	Pa-	1e	.	Pa-
1AA	-nie	-nie	1A	-nie	-nie	1c	.	-nie	1e	.	-nie
=3-	=3-	=3-	=3-	=3-	=3-	=3-	=3-	=3-	=3-	=3-	=3-
0E	byś	byś	0G	byś	byś	1B	.	byś	0g	.	byś
.	.	.	.	.	.	1.c	.	nie	.	.	.
=4-	=4-	=4-	=4-	=4-	=4-	=4-	=4-	=4-	=4-	=4-	=4-
1F	nie	nie	1A	nie	nie	.	.	.	1f	.	nie
.	.	.	.	.	.	2d\	.	.	.	.	.
1E	był	był	1B	był	był	1e	.	był	1g	.	był
=5-	=5-	=5-	=5-	=5-	=5-	=5-	=5-	=5-	=5-	=5-	=5-
0A	Bog	Bóg	0c	Bog	Bóg	0e	.	Bóg	0a	.	Bóg
=6-	=6-	=6-	=6-	=6-	=6-	=6-	=6-	=6-	=6-	=6-	=6-
1E	co	co	1B	co	co	1e	.	co	1g	.	co
1E	wſʒy-	wszy-	1G	wſʒy-	wszy-	1e	.	wszy-	1b	.	wszy-
=7-	=7-	=7-	=7-	=7-	=7-	=7-	=7-	=7-	=7-	=7-	=7-
1F	-ſtko	-stko	1A	-ſtko	-stko	2c/	.	-stko	1a	.	-stko
.	.	.	.	.	.	2d\	.	.	.	.	.
1E	ſprá-	spra-	1B	ſprá-	spra-	1e	.	spra-	1g	.	spra-
=8-	=8-	=8-	=8-	=8-	=8-	=8-	=8-	=8-	=8-	=8-	=8-
0AA	-wu-	-wu-	0c	-wu-	-wu-	0e	.	-wu-	0a	.	-wu-
=9-	=9-	=9-	=9-	=9-	=9-	=9-	=9-	=9-	=9-	=9-	=9-
!LO:TX:t=P:problem:ozdobna kreska taktowa	!	!	!LO:TX:t=P:problem:ozdobna kreska taktowa	!	!	!LO:TX:t=P:problem:ozdobna kreska taktowa	!	!	!LO:TX:t=P:problem:ozdobna kreska taktowa	!	!
0E	-ieſʒ	-jesz	0B	-ieſʒ	-jesz	0e	.	-jesz	0g	.	-jesz
*	*	*	*custos:A	*	*	*	*	*	*	*	*
!	!	!	!LO:LB:g=original	!	!	!	!	!	!	!	!
=10-	=10-	=10-	=10-	=10-	=10-	=10-	=10-	=10-	=10-	=10-	=10-
*	*	*	*xywh-#5:596,1395,2104,724	*	*	*	*	*	*	*	*
0AA	A	a	0A	A	a	0e	.	a	0cc	.	a
*	*	*	*	*	*	*custos:e	*	*	*	*	*
!	!	!	!	!	!	!LO:LB:g=original	!	!	!	!	!
=11-	=11-	=11-	=11-	=11-	=11-	=11-	=11-	=11-	=11-	=11-	=11-
*	*	*	*	*	*	*xywh-#6:655,2274,2056,397	*	*	*	*	*
1E	roʒ-	roz-	1G	roʒ-	roz-	1e	.	roz-	1b	.	roz-
1F	-licǯ-	-licz-	1A	-licǯ-	-licz-	2c/	.	-licz-	1a	.	-licz-
.	.	.	.	.	.	2d\	.	.	.	.	.
=12-	=12-	=12-	=12-	=12-	=12-	=12-	=12-	=12-	=12-	=12-	=12-
0E	-nie	-nie	0B	-nie	-nie	0e	.	-nie	0g	.	-nie
*custos:C	*	*	*	*	*	*	*	*	*custos:g	*	*
!LO:LB:g=original	!	!	!	!	!	!	!	!	!LO:LB:g=original	!	!
=13-	=13-	=13-	=13-	=13-	=13-	=13-	=13-	=13-	=13-	=13-	=13-
*xywh-#5:2833,1291,2139,718	*	*	*	*	*	*	*	*	*xywh-#6:627,1036,2065,392	*	*
1C	grzeſʒ-	grzesz-	1c	grzeſʒ-	grzesz-	1e	.	grzesz-	1g	.	grzesz-
1D	-ne-	-ne-	1A	-ne-	-ne-	1d	.	-ne-	1f	.	-ne-
=14-	=14-	=14-	=14-	=14-	=14-	=14-	=14-	=14-	=14-	=14-	=14-
0E	-go	-go	0G	-go	-go	0B	.	-go	0e	.	-go
=15-	=15-	=15-	=15-	=15-	=15-	=15-	=15-	=15-	=15-	=15-	=15-
1AA	cǯło-	czło-	1A	cǯło-	czło-	1c	.	czło-	1e	.	czło-
1AA	-wie-	-wie-	1c	-wie-	-wie-	1e	.	-wie-	1a	.	-wie-
=16-	=16-	=16-	=16-	=16-	=16-	=16-	=16-	=16-	=16-	=16-	=16-
1E	-ká	-ka	1B	-ká	-ka	1e	.	-ka	1g	.	-ka
1F	pro-	pró-	1A	pro-	pró-	1d	.	pró-	1.a	.	pró-
=17-	=17-	=17-	=17-	=17-	=17-	=17-	=17-	=17-	=17-	=17-	=17-
0E	-bu-	-bu-	0B	-bu-	-bu-	0e	.	-bu-	.	.	.
!	!	!	!	!	!	!	!	!	!LO:SIC:o=4g/	!	!
.	.	.	.	.	.	.	.	.	4g#i	.	.
!	!	!	!	!	!	!	!	!	!LO:SIC:o=4f/	!	!
.	.	.	.	.	.	.	.	.	4f#i	.	.
!	!	!	!	!	!	!	!	!	!LO:SIC:o=1g	!	!
.	.	.	.	.	.	.	.	.	1g#i	.	-bu-
=18-	=18-	=18-	=18-	=18-	=18-	=18-	=18-	=18-	=18-	=18-	=18-
!LO:TX:t=P:problem:ozdobna kreska taktowa	!	!	!LO:TX:t=P:problem:ozdobna kreska taktowa	!	!	!LO:TX:t=P:problem:ozdobna kreska taktowa	!	!	!LO:TX:t=P:problem:ozdobna kreska taktowa	!	!
0AA	-ieſʒ,	-jesz.	0A	-ieſʒ	-jesz.	0e	.	-jesz.	0a	.	-jesz.
*	*	*	*custos:E	*	*	*	*	*	*	*	*
!	!	!	!LO:LB:g=original	!	!	!	!	!	!	!	!
=19-	=19-	=19-	=19-	=19-	=19-	=19-	=19-	=19-	=19-	=19-	=19-
*	*	*	*xywh-#5:590,2063,2122,736	*	*	*	*	*	*	*	*
0C	U-	U-	0E	U-	U-	0c	.	U-	0g	.	U-
=20-	=20-	=20-	=20-	=20-	=20-	=20-	=20-	=20-	=20-	=20-	=20-
1C	-miał-	-miał-	1G	-miał-	-miał-	1c	.	-miał-	1e	.	-miał-
1C	-bych	-bym	1G	-bych	-bym	1.c	.	-bym	1e	.	-bym
=21-	=21-	=21-	=21-	=21-	=21-	=21-	=21-	=21-	=21-	=21-	=21-
1F	ſie	się	1A	ſie	się	.	.	.	1f	.	się
*	*	*	*	*	*	*custos:d	*	*	*	*	*
*	*	*	*	*	*	*xywh-#6:646,2644,2075,402	*	*	*	*	*
!	!	!	!	!	!	!LO:LB:g=original	!	!	!	!	!
.	.	.	.	.	.	2d\	.	się	.	.	.
1E	do-	do-	1B	do-	do-	1e	.	do-	1g	.	do-
=22-	=22-	=22-	=22-	=22-	=22-	=22-	=22-	=22-	=22-	=22-	=22-
!	!	!	!	!	!	!	!	!	!LO:SIC:v:t=błędna wysokość custos	!	!
0A	-má-	-ma-	0c	-má-	-ma-	0e	.	-ma-	0a	.	-ma-
*	*	*	*	*	*	*	*	*	*custos:cc	*	*
!	!	!	!	!	!	!	!	!	!LO:LB:g=original	!	!
=23-	=23-	=23-	=23-	=23-	=23-	=23-	=23-	=23-	=23-	=23-	=23-
*	*	*	*	*	*	*	*	*	*xywh-#6:617,1376,2089,517	*	*
0E	-wiáć	-wiać	0B	-wiáć	-wiać	0e	.	-wiać	0g@	.	-wiać
*custos:AA	*	*	*	*	*	*	*	*	*	*	*
!LO:LB:g=original	!	!	!	!	!	!	!	!	!	!	!
=24-	=24-	=24-	=24-	=24-	=24-	=24-	=24-	=24-	=24-	=24-	=24-
*xywh-#5:2797,1989,2099,724	*	*	*	*	*	*	*	*	*	*	*
1AA	ſwey	swej	1A	ſwey	swej	1e	.	swej	1cc	.	swej
!	!	!	!	!	!	!	!	!	!LO:MO:mod=1a	!	!
1AA	ſmut-	smut-	1c	ſmet-	smut-	1e	.	smut-	0a	.	smut-
=25-	=25-	=25-	=25-	=25-	=25-	=25-	=25-	=25-	=25-	=25-	=25-
!	!	!	!	!	!	!	!	!	!LO:MO:null:mod=1a	!	!
1E	-ney	-nej	1B	-ney	-nej	1e	.	-nej	.	.	-nej
1E	ǯá-	ża-	1G	ǯá-	ża-	1c	.	ża-	0g	.	ża-
=26-	=26-	=26-	=26-	=26-	=26-	=26-	=26-	=26-	=26-	=26-	=26-
0D	-ło-	-ło-	0A	-ło-	-ło-	0d	.	-ło-	.	.	.
!	!	!	!	!	!	!	!	!	!LO:SIC:o=1f	!	!
.	.	.	.	.	.	.	.	.	1f#i	.	-ło-
=27-	=27-	=27-	=27-	=27-	=27-	=27-	=27-	=27-	=27-	=27-	=27-
!LO:TX:t=P:problem:ozdobna kreska taktowa	!	!	!LO:TX:t=P:problem:ozdobna kreska taktowa	!	!	!LO:TX:t=P:problem:ozdobna kreska taktowa	!	!	!LO:TX:t=P:problem:ozdobna kreska taktowa	!	!
0E	-śći	-ści	0G	-śći	-ści	0B	.	-ści	0g	.	-ści
*	*	*	*custos:c	*	*	*	*	*	*	*	*
!	!	!	!LO:LB:g=original	!	!	!	!	!	!	!	!
=28-	=28-	=28-	=28-	=28-	=28-	=28-	=28-	=28-	=28-	=28-	=28-
*	*	*	*xywh-#5:620,2775,2058,839	*	*	*	*	*	*	*	*
0C	Kto-	któ-	0c	Kto-	któ-	0e	.	któ-	0g	.	któ-
=29-	=29-	=29-	=29-	=29-	=29-	=29-	=29-	=29-	=29-	=29-	=29-
1AA	-ra	-ra	1c	-ra	-ra	1e	.	-ra	1a	.	-ra
1AA	mie	mnie	1c	mie	mnie	1e	.	mnie	1a	.	mnie
=30-	=30-	=30-	=30-	=30-	=30-	=30-	=30-	=30-	=30-	=30-	=30-
1E	ieſt	jest	1B	ieſt	jest	1e	.	jest	1g	.	jest
1F	pot-	spot-	1A	pot-	spot-	1d	.	spot-	0a	.	spot-
=31-	=31-	=31-	=31-	=31-	=31-	=31-	=31-	=31-	=31-	=31-	=31-
0E	-ká-	-ka-	0B	-ká-	-ka-	0e	.	-ka-	.	.	.
!	!	!	!	!	!	!	!	!	!LO:SIC:o=1g	!	!
.	.	.	.	.	.	.	.	.	1g#i	.	-ka-
*	*	*	*	*	*	*custos:e	*	*	*	*	*
!	!	!	!	!	!	!LO:LB:g=original	!	!	!	!	!
=32-	=32-	=32-	=32-	=32-	=32-	=32-	=32-	=32-	=32-	=32-	=32-
*	*	*	*	*	*	*xywh-#6:646,3017,2012,508	*	*	*	*	*
0AA	-łá	-ła	0A	-łá	-ła	0e	.	-ła	0a	.	-ła
=33-	=33-	=33-	=33-	=33-	=33-	=33-	=33-	=33-	=33-	=33-	=33-
0AA	ʒ_twey	z_Twej	0c	ʒ_twey	z_Twej	0e	.	z_Twej	0a	.	z_Twej
=34-	=34-	=34-	=34-	=34-	=34-	=34-	=34-	=34-	=34-	=34-	=34-
0D	Bo-	Bo-	0A	Bo-	Bo-	0d	.	Bo-	0f	.	Bo-
=35-	=35-	=35-	=35-	=35-	=35-	=35-	=35-	=35-	=35-	=35-	=35-
1E	-ſkiey	-skiej	1G	-ſkiey	-skiej	1B	.	-skiej	1g	.	-skiej
*custos:C	*	*	*	*	*	*	*	*	*	*	*
*xywh-#5:2785,2692,2099,736	*	*	*	*	*	*	*	*	*	*	*
!LO:LB:g=original	!	!	!	!	!	!	!	!	!	!	!
1C	mo-	mo-	1A	mo-	mo-	1c	.	mo-	0e	.	mo-
=36-	=36-	=36-	=36-	=36-	=36-	=36-	=36-	=36-	=36-	=36-	=36-
0D	-ǯno-	-żno-	0F	-ǯno-	-żno-	1.A	.	-żno-	.	.	.
.	.	.	.	.	.	.	.	.	1d	.	-żno-
.	.	.	.	.	.	2B/	.	.	.	.	.
=37-	=37-	=37-	=37-	=37-	=37-	=37-	=37-	=37-	=37-	=37-	=37-
1.AA	-śći.	-ści.	[0El	-śći.	-ści.	1.c	.	-ści.	[0el	.	-ści.
2BB/	.	.	.	.	.	4B/	.	.	.	.	.
.	.	.	.	.	.	4A/	.	.	.	.	.
=38-	=38-	=38-	=38-	=38-	=38-	=38-	=38-	=38-	=38-	=38-	=38-
1.C	.	.	0E_	.	.	1.G	.	.	0e_	.	.
4BB/	.	.	.	.	.	2A/	.	.	.	.	.
4AA/	.	.	.	.	.	.	.	.	.	.	.
=39-	=39-	=39-	=39-	=39-	=39-	=39-	=39-	=39-	=39-	=39-	=39-
2GG/	.	.	0E_	.	.	2B/	.	.	0e_	.	.
1AA	.	.	.	.	.	1c	.	.	.	.	.
4GG/	.	.	.	.	.	4B/	.	.	.	.	.
4FF/	.	.	.	.	.	4A/	.	.	.	.	.
=40-	=40-	=40-	=40-	=40-	=40-	=40-	=40-	=40-	=40-	=40-	=40-
0EEl	.	.	0E]	.	.	0Bl	.	.	0e]	.	.
==	==	==	==	==	==	==	==	==	==	==	==
*-	*-	*-	*-	*-	*-	*-	*-	*-	*-	*-	*-
!!!system-decoration: [(*)]
!!LO:MO:ori
!!!RDF**kern: l = terminal long
!!!RDF**kern: @ = marked note, color=saddlebrown
!!LO:MO:mod
!! !!!RDF**kern: i = editorial accidental
!!LO:MO:end
!!!filter-modern: shed -e "s/TX(.*):t=P:/tx$1:t=P:/LG" | sic -sq | modori -m | autostem -r | tie -s | humtr -p | shed -e "s/-//B" | shed -e "s/^custos:/Xcustos:/I"
!!!ENC: Andrzej Kubiczek
!!!END: 2022-04-22
!!!EED: Andrzej Kubiczek
!!!EEV: 2022-04-22
!!!ENC-modern: Andrzej Kubiczek
!!!END-modern: 2022-07-20
!!!ENC-iiif: Emilia Ziętek
!!!END-iiif: 2022-09-02
